X: 173
T: The Pretty Cuckoo
N:"With expression"
B:O'Neill's 173
Z:Transcribed by henrik.norbeck@mailbox.swipnet.se
M:6/8
L:1/8
K:Bb
F|(B>cd) (dcB)|(G2 F) (D2 F)|(F>GB) (c2 B/c/)|(d2 c) B2 (d|
G2) (c F2) (B|D>)CB, (C2 F)|(F>GB) (c2 B/c/)|(d2 c) B2 (d|
G2) (c F2) (B|D>)CB, (C2 F)|(F>GB) (c2 B/c/)|d2 c B2||


